src/components/Icon/assets/archive.svg

<svg xmlns="http://www.w3.org/2000/svg" width="24" height="24" viewBox="0 0 24 24">
    <path fill="#65676A" fill-rule="evenodd" d="M20.5 3c.827 0 1.5.673 1.5 1.5V9h-1.006v10.5c0 .827-.673 1.5-1.5 1.5h-15c-.827 0-1.5-.673-1.5-1.5V9H2V4.5C2 3.673 2.673 3 3.5 3zm-1.506 6h-14v10h14V9zm-4.5 2v2h-5v-2h5zM20 5H4v2h16V5z"/>
</svg>

<svg width="24" height="24" viewBox="0 0 24 24" fill="none" xmlns="http://www.w3.org/2000/svg">
<path fill-rule="evenodd" clip-rule="evenodd" d="M18.994 19H4.99399V9H18.994V19ZM20 5H4V7H4.494H19.494H20V5ZM20.5 3C21.327 3 22 3.673 22 4.5V9H20.994V19.5C20.994 20.327 20.321 21 19.494 21H4.494C3.667 21 2.994 20.327 2.994 19.5V9H2V4.5C2 3.673 2.673 3 3.5 3H20.5ZM14.494 13H9.49399V11H14.494V13Z" fill="#65676A"/>
</svg>
